X: 1992
T: Wooloomooloo Schottische
C:Ernesto Spagnoletti, published 1858
B: australian traditional tunes wiki
M:4/4
L:1/8
R: Schottische
Q: 1/4=100
K:D
V:1 
"D"a2f2f2A2|"A7"e>^d e>fg2z2|g2e2e2A2|"D"d>A B>c "A7"d>e f>g|
"D"a2f2f2A2|"A7"e>^d e>fg2z2|A2A2B2c2|e4"D"d2z2:|
"G"d2B2G2D2|"C"^D>E A>ce3e|"D7"edcA FDCA,|"G"G,B, D>G B>G D>G|d2B2G2D2|
"C"^D>E A>ce3e|"D7"edcA FDCA,|1"G"G,>B, D>GG2B>c:|2"G"G,>B, D>G B>d "A7"f>=g||
"D"a2f2f2A2|"A7"e>^d e>fg2z2|g2e2e2A2|"D"d>A B>c "A7"d>e f>g|
"D"a2f2f2A2|"A7"e>^d e>fg2z2|A2A2B2c2|e4"D"d2z2||
|:"A"c2c2B2A2|"E"g>g (3fce "E7"d2z2|g2f2e2d2|"A"c>e ^d>e "E7"f>e d>e|
"A"c2c2B2A2|"E"g>g (3fce "E7"d2z2|(3cd^d e2(3gfed2|d>e f>g"A"a2z2:|
% abcbook-tune_id 6342d5be892631ce0f053b94


% abcbook-boost 0
% abcbook-tablature 
% abcbook-transpose 
% abcbook-lastupdated 1665324492954
% abcbook-soundfonts 
% abcbook-repeats 1
% NFF Book 2017

